img/3_webassembly.svg

<svg xmlns="http://www.w3.org/2000/svg" viewBox="2 2 28 28"><path d="M19.153 2.35v.15a3.2 3.2 0 1 1-6.4 0v-.15H2v27.919h27.919V2.35z" style="fill:#654ff0"/><path d="M8.485 17.4h1.85l1.265 6.723h.023L13.14 17.4h1.731l1.371 6.81h.027l1.44-6.81h1.815l-2.358 9.885h-1.837l-1.36-6.728h-.036l-1.456 6.728h-1.87zm13.124 0h2.917l2.9 9.885h-1.911l-.63-2.2h-3.323l-.486 2.2h-1.859zm1.11 2.437-.807 3.627h2.512l-.924-3.632z" style="fill:#fff"/></svg>

<svg xmlns="http://www.w3.org/2000/svg" viewBox="0 0 32 32">
	<path d="M19.153,2.35V2.5a3.2,3.2,0,1,1-6.4,0h0V2.35H2V30.269H29.919V2.35Z" style="fill:#654ff0"/>
	<path d="M8.485,17.4h1.85L11.6,24.123h.023L13.14,17.4h1.731l1.371,6.81h.027l1.44-6.81h1.815l-2.358,9.885H15.329l-1.36-6.728h-.036l-1.456,6.728h-1.87Zm13.124,0h2.917l2.9,9.885H25.515l-.63-2.2H21.562l-.486,2.2H19.217Zm1.11,2.437-.807,3.627h2.512L23.5,19.832Z" style="fill:#fff"/>
</svg>
